X:341
T:Air
B:Joyce, P. W.; "Old Irish Folk Music and Songs"
R:song air
A:Kilkenny
O:Irish
L:1/8
M:C
K:Eb
(EF)|\
G3 F GBcd|e3 d c2 de|f3 e dcBc|d2 ed c2 EF|
G3 F GBcd|e3 d c2 de|f3 e dcBc|defd e2 Bc|
defg e2 d2|c3 B G2 ed|c2 G2 BG F/E/F|E2 E2 E2||
